X: 27736
T: Morning Mist, The
R: reel
M: 4/4
K: Gmajor
d2BG DGGB|dGGF DGBd|BccB c=F~F2|c=FA^F GABc|
dcBG DGGB|dGGF DGBd|BccB cedc|1 cAFA GABc:|2 cAFA GABd||
|:gddc Bcdc|BGGE DGBd|aeed BccB|caaa- abaf|
gddc Bcdc|BGGE DGBd|BccB cedc|1 cAFA GA (3Bcd:|2 cAFA GABc||

